X: 1
T: Auld Wattie
M: 6/8
L: 1/8
R: jig
K: Ador
|:eee ABd|e2d B2 d|eee ABd|BAG ABd|
eee ABd|e2d B2d|egg dgg|BAG ABd:|
|:eAB eAB|eAB e2d|eAB e2B|dBG GBd|
eAB eAB|eAB e2d|egg dgg|BAG ABd:|
